!!!COM: Nuno, Jaime
!!!CDT: 1824-1908
!!!OTL: National Anthem, Mexico
!!!ENC: Davis, Matthew J.
!!Vocal Line Only
**kern
*clefG2
*k[]
*C:
*M2/2
=1-
8.c
16e
=2
4g
8.g
16g
4g
6g
6a
6b
=3
2cc
4g
8.e
16e
=4
4d
8.e
16e
4f
8.g
16g
=5
4e
2c
8.cc
16cc
=6
4b
8.b-
16b-
4a
8.a-
16a-
=7
4g
2cc
8.a
16b
=8
4cc
8.e
16f
4g
6f
6e
6d
=9
2c
4r
8.e
16g
=10
4cc
8.cc
16cc
4cc
8.cc
16dd
=11
4.ee
8dd
4cc
8.cc
16cc
=12
4cc
8.e
16a
4g
6f
6e
6d
=13
4c
4r
4r
!Fine
==14
!Verse
9.g
16g
=15
4g
8g
8dd
8cc
8b
8a
8b
=16
2cc
4g
8.e
16g
=17
8.g
16f
8f
8a
8a
8g
8.b
16a
=18
4..g
16f
4e
8.g
16g
=19
4g
8g
8dd
8cc
8b
8a
8b
=20
8cc
8g
2ee
8dd
8cc
=21
8b
816cc
16b
8a#
8b
4dd
8.cc
16an
=22
4g
4r
4r
8.g
16g
=23
4g
8.g
16g
4g
8.g
16a-
=24
4b-
2ee-
8.g
16b-
=25
8.b-
16a-
8a-
8cc
8cc
8b-
8.dd
16cc
=26
4..b-
16a-
4g
8.g
16g
=27
8a-
4g
8g
8a-
4g
8g
=28
4.cc
8dd
4ee-
8.cc
16cc
=29
8cc
8e-
8e-
8e-
4f
8.e-
16f
=30
4g
4b
4cc
4dd
=31
8ee-
8cc
8b
8cc
4dd
8.cc
16cc
=32
4g
4r
4r
!D.C. al Fine (repeat from beginning to measure 13)
==
*-
